X: 192
T:Tfilati
C:Naomi Shemer 1994
O:Israel
F: http://www.youtube.com/watch?v=kjTB7pTcvjM
F: http://www.youtube.com/watch?v=JICwhCA5ego
F: http://www.youtube.com/watch?v=m2TRR3WzB8g
M:3/4
L:1/4
Q: 1/4=132
K:Dm
%%MIDI program 0
%%MIDI bassprog 1
%%MIDI chordprog 1
%%MIDI bassvol 50
%%MIDI chordvol 60
D          |"Dm"F>EF|D^CE   |D2D   |\
"Gm"B>AB   |G^FA    |G2E    |
"Gm"B>AB   |G2C     |"F"A>GA|F2F   |\
"Gm"EFG    |F2E     |"F"=A2F|
"Gm"B>AB   |G2C     |A>GA   |"F"F2F|\
"Gm"EFG    |F2E     |"Dm"D3 |
"Gm"F>EF   |DEF     |G>FG   |"C"C3 |\
"F"A>GA"Gm"|ED^C    |"Dm"D3 |



